X: 1102
T: Cupid's Garden.
%R: minuet, waltz
B: Henry Playford "Apollo's Banquet", London 1687 (5th Edition)
F: https://archive.org/details/apollosbanquetco01rugg
Z: 2017 John Chambers <jc:trillian.mit.edu>
M: 3/2
L: 1/8
K: Bb
% - - - - - - - - - -
F2 |\
B3AB2 c3de2 | d2B4- B4de | f3gf2 A4B2 | c6- c4F2 |\
B3AB2 f3gf2 | g2a2b2 a3gf2 | (g2c2)f2 f4=e2 | f6- f4 :|
|: f2 |\
f3gf2 g4a2 | b2d4- d4(ed) | (c2d2)B2 (A2B2)G2 | g6- g4f2 |\
(e2f2)d2 (c2d2)B2 | (A2B2)G2 F4a2 | (ga)b2G2 A4B2 | B6- B4 |]
% - - - - - - - - - -

%%sep 1 1 500
%%sep 1 1 500

